icons/themes/default/cube.svg

<svg viewBox="0 0 20 20" fill="none" xmlns="http://www.w3.org/2000/svg">
<path fill-rule="evenodd" clip-rule="evenodd" d="M4.97668 3.92035C5.07245 3.72881 5.26823 3.60781 5.48238 3.60781L9.44869 3.60783V5.97825H3.94773L4.97668 3.92035ZM10.5487 5.97825V3.60783L14.515 3.60784C14.7292 3.60784 14.9249 3.72884 15.0207 3.92038L16.0496 5.97825H10.5487ZM9.99869 7.07825H16.3896V14.7088C16.3896 15.6371 15.6371 16.3896 14.7088 16.3896H5.28858C4.36032 16.3896 3.60781 15.6371 3.60781 14.7088V7.07825H9.99869ZM5.48238 2.50781C4.85158 2.50781 4.27491 2.86421 3.99281 3.42841L2.56588 6.28228C2.52769 6.35865 2.50781 6.44286 2.50781 6.52825V14.7088C2.50781 16.2446 3.75281 17.4896 5.28858 17.4896H14.7088C16.2446 17.4896 17.4896 16.2446 17.4896 14.7088V6.52825C17.4896 6.44286 17.4697 6.35865 17.4315 6.28228L16.0046 3.42844C15.7225 2.86424 15.1458 2.50785 14.515 2.50784L9.99869 2.50783L5.48238 2.50781ZM7.6851 10.5487H12.3123V9.44868H7.6851V10.5487Z" fill="currentColor" />
</svg>

<svg xmlns="http://www.w3.org/2000/svg" fill="none" viewBox="0 0 20 20">
  <path fill="currentColor" fill-rule="evenodd" d="M4.977 3.92a.565.565 0 0 1 .505-.312H9.45v2.37H3.948L4.977 3.92Zm5.572 2.058v-2.37h3.966c.214 0 .41.12.506.312l1.029 2.058h-5.501Zm-.55 1.1h6.39v7.63a1.68 1.68 0 0 1-1.68 1.682h-9.42a1.68 1.68 0 0 1-1.681-1.681v-7.63h6.39Zm-4.517-4.57c-.63 0-1.207.356-1.49.92L2.567 6.282a.55.55 0 0 0-.058.246v8.18a2.78 2.78 0 0 0 2.78 2.782h9.42a2.78 2.78 0 0 0 2.782-2.781v-8.18a.55.55 0 0 0-.058-.247l-1.427-2.854a1.665 1.665 0 0 0-1.49-.92H5.482Zm2.203 8.04h4.627v-1.1H7.685v1.1Z" clip-rule="evenodd"/>
</svg>
